!!!OTL: 277. Die Kapelle.
!!!COM: C. Kreutzer
!!!ODT: 1824 (vor)
!!!ARE: Europa, Mitteleuropa, Deutschland
!!!SCT: B0277
!!!TXL: @@DE
!!!YEM: Copyright 1995, estate of Helmut Schaffrath.
**kern	**text
*ICvox	*
*Ivox	*
*M4/4	*
*met(c)	*
*clefG2	*
*k[b-e-a-]	*
*E-:	*
!LO:TX:a:t=Langֵ¿am und feierlich	!
{4g	Was
=1	=1
4.g	ſchimmert
8f#	.
4g	dort
8.a-	auf
16g	dem
=2	=2
4fn	Ber-
8.g	-ge
16f	ſo
4e-	ſchön,
8r}	.
{16e-	wenn
16e-	die
=3	=3
4f	Sternſein
4B-	.
4.g	hoch
16e-L	am
16gJ	.
=4	=4
4b-	Himmel
8b-	.
8g	auf-
4f	-gehn?
8r}	.
{8b-	Was
=5	=5
4b-	ſchim-
8.fL	-mert
16gJ	.
4a-	dort
8.f	auf
16e-	dem
=6	=6
4d	Ber-
8.e-	-ge
16f	ſo
4B-	ſchön,
8r}	.
{16f	wenn
16f	die
=7	=7
4g	Sternlein
8fL	.
8e-J	.
4.f	hoch
8f	am
=8	=8
4b-	Him-
8b-	-mel
8g	auf-
4f	-gehn?
8r}	.
{8g	Das
=9	=9
4g	iſt
8g	die
8g	Ka-
4g	-pel-
4g	-le,
=10	=10
8g	ſtill
8r	.
8g	und
8r	.
4g	klein,
8r}	.
{8g	ſie
=11	=11
4g	la-
8g	-det
8g	den
4b-	Pil-
8a-	-ger
8f	ʒum
=12	=12
4e-	Be-
4f	-ten
4g	ein.
8r}	.
{8g	Das
=13	=13
4g	iſt
8g	die
8g	Ka-
4g	-pel-
4g	-le,
=14	=14
8g	ſtill
8r	.
8g	und
8r	.
4g	klein,
8r}	.
{8g	ſie
=15	=15
4g	la-
8g	-det
8g	den
4cc	Pil-
8a-	-ger
8f	ʒum
=16	=16
4e-	Be-
4f	-ten
4g	ein,
8r}	.
{8g	ſie
=17	=17
4g	ladet
8g	.
8g	den
4cc	Pil-
8a-	-ger
8f	ʒum
=18	=18
2b-	Be-
2d	-ten
=19	=19
2e-	ein.
4r}	.
==	==
!!!AGN: Stimmungs - Lied, Natur, Andacht
!!!GTL: Trauerlieder (Elegien) und Stimmungslieder
!!!ONB: ESAC (Essen Associative Code) Database: BOEHME
!!!AMT: simple quadruple
!!!AIN: vox
!!!EED: Helmut Schaffrath
!!!EEV: 1.0
!!!Text: Karl Breitenstein
!!!URL-scan: https://archive.org/details/BoehmeVtLieder1895/page/n235/mode/2up
!!!ENC: Anna Maria Matuszewska
!!!EEV: 2024/03/07
*-	*-
